icons/mobile/24/svg/fingerprinter-24.svg

<svg width="24" height="24" viewBox="0 0 24 24" fill="none" xmlns="http://www.w3.org/2000/svg">
<path d="M8.42188 9.65017C8.80787 7.25422 11.2518 5.64724 13.8857 6.06716C16.4917 6.48716 18.308 8.74876 17.959 11.1258C17.925 11.9148 17.4155 19.1525 10.4785 21.9295C10.3656 21.9774 10.2487 22.0008 10.1318 22.0008C9.79388 22.0007 9.47211 21.8034 9.32812 21.4724C9.13727 21.0295 9.34222 20.515 9.78516 20.323L9.78418 20.322C15.9271 17.872 16.2019 11.2954 16.2109 11.0164L16.2217 10.9041C16.4537 9.4592 15.2822 8.06485 13.6084 7.79568C11.9494 7.52468 10.4281 8.45704 10.1611 9.86404V11.4051C10.161 13.6109 8.36695 15.405 6.16113 15.4051H2.87695C2.39406 15.4051 2.00212 15.0129 2.00195 14.5301C2.00195 14.0471 2.39395 13.6551 2.87695 13.6551H6.16113C7.40095 13.655 8.41096 12.6449 8.41113 11.4051L8.42188 9.65017Z" fill="black"/>
<path d="M10.4541 2.28299C14.3161 1.31299 18.6053 2.89161 20.6533 6.04861C23.2313 10.0186 22.0839 15.4721 17.4199 21.4031L17.2148 21.6638C17.0419 21.8836 16.7852 21.9987 16.5264 21.9988C16.3384 21.9988 16.1473 21.9373 15.9873 21.8113C15.6074 21.5123 15.541 20.9628 15.8389 20.5828L16.0439 20.3211C20.2089 15.0241 21.3235 10.2938 19.1855 7.00076C17.5325 4.45389 14.0427 3.1783 10.8828 3.97927C7.93094 4.72728 6.07594 7.15463 5.79688 10.6385L5.74512 11.1931V11.1951C5.70593 11.6759 5.26362 12.0358 4.80273 11.9969C4.32188 11.9577 3.96598 11.5774 4.00098 11.1375L4.05273 10.4988C4.39573 6.22181 6.7301 3.22799 10.4541 2.28299Z" fill="black"/>
<path d="M13.125 9.99978C13.608 9.99978 14 10.3918 14 10.8748V11.8748C14 15.8038 10.804 18.9998 6.875 18.9998H2.875C2.39202 18.9998 2.00003 18.6078 2 18.1248C2 17.6418 2.392 17.2498 2.875 17.2498H6.875C9.83898 17.2498 12.25 14.8388 12.25 11.8748V10.8748C12.25 10.3918 12.642 9.99978 13.125 9.99978Z" fill="black"/>
</svg>

<!-- This Source Code Form is subject to the terms of the Mozilla Public
   - License, v. 2.0. If a copy of the MPL was not distributed with this
   - file, You can obtain one at http://mozilla.org/MPL/2.0/. -->
<svg xmlns="http://www.w3.org/2000/svg" width="24" height="24" fill="none" viewBox="0 0 24 24">
    <path fill="#000" d="M8.422 9.65c.386-2.396 2.83-4.003 5.464-3.583 2.606.42 4.422 2.682 4.073 5.059-.034.789-.543 8.027-7.48 10.804a.877.877 0 0 1-1.15-.457.876.876 0 0 1 .456-1.15v-.001c6.142-2.45 6.417-9.027 6.426-9.306l.01-.112c.233-1.445-.939-2.84-2.613-3.108-1.659-.271-3.18.661-3.447 2.068v1.541c0 2.206-1.794 4-4 4H2.877a.876.876 0 0 1 0-1.75H6.16c1.24 0 2.25-1.01 2.25-2.25z" />
    <path fill="#000" d="M10.454 2.283c3.862-.97 8.151.609 10.2 3.766 2.577 3.97 1.43 9.423-3.234 15.354l-.205.26a.875.875 0 1 1-1.376-1.08l.205-.262c4.165-5.297 5.28-10.027 3.142-13.32-1.654-2.547-5.143-3.823-8.303-3.022-2.952.748-4.807 3.176-5.086 6.66l-.052.554v.002a.89.89 0 0 1-.942.802c-.481-.04-.837-.42-.802-.86l.052-.638c.343-4.277 2.677-7.271 6.401-8.216" />
    <path fill="#000" d="M13.125 10c.483 0 .875.392.875.875v1A7.133 7.133 0 0 1 6.875 19h-4a.875.875 0 0 1 0-1.75h4a5.38 5.38 0 0 0 5.375-5.375v-1c0-.483.392-.875.875-.875" />
</svg>
